X: 7402
T: Clog De Lafond
R: barndance
M: 4/4
K: Amajor
(3cea|c'aec A2 (3cea|c'aec B2 (3Bde|gedB G2gf|(3efe dB c2 (3cea|
c'aec A2 (3cea|c'aec B2 (3Bde|gedB G2gf|(3efe dG A2||
AF|EAAB cAAG|FdFd F2 BA|GeGe GedB|AGAc fecA|
EAAB cAAG|FdFd F2BA|GeGe GedB|Aaec A2||

